X:6333
T:Glen Road to Carrick
M:C
L:1/8
K:D Mixolydian
AG|FDD2 FDGE|FDFG ABGA|FDD2 FDGF|EdcA G2:|!
FG|AddB ABAF|AddB A2FG|AddB AGFD|EdcA G2FG|!
AddB ABAF|AddB A2Bc|defd AGFD|EdcA G2:|!
ge|fdd2 fdge|fdfg abag|fdd2 fdef|g2ag f2:|!
ge|f3e d^cdB|AFF2 A2Bc|defd AGFD|EdcA G2:|!
B^c|dDD2 ADD2|dDD2 A2Bc|dDD2 AGFD|EdcA GA^c|!
dDD2 AD^cD|dD^cD A2Ac|defd AGFD|EdcA G2:|!
